packages/icons/src/components/Icon/assets/small-solid/eye-off.svg

<svg width="16" height="16" viewBox="0 0 16 16" fill="none" xmlns="http://www.w3.org/2000/svg">
<path fill-rule="evenodd" clip-rule="evenodd" d="M3.04573 1.93061C2.73819 1.62307 2.23957 1.62307 1.93203 1.93061C1.62449 2.23815 1.62449 2.73677 1.93203 3.04431L12.9571 14.0694C13.2647 14.3769 13.7633 14.3769 14.0708 14.0694C14.3784 13.7619 14.3784 13.2632 14.0708 12.9557L12.682 11.5669C13.7113 10.7156 14.5049 9.58936 14.95 8.30061C15.0166 8.10787 15.0167 7.89829 14.9503 7.70549C13.9571 4.8218 11.22 2.74996 7.99908 2.74996C6.79826 2.74996 5.6647 3.03792 4.66369 3.54857L3.04573 1.93061ZM6.40123 5.28611L7.59346 6.47834C7.72358 6.44354 7.86033 6.42499 8.00142 6.42499C8.87128 6.42499 9.57643 7.13014 9.57643 8C9.57643 8.14109 9.55788 8.27785 9.52309 8.40796L10.7153 9.60019C10.9924 9.13122 11.1514 8.58418 11.1514 8C11.1514 6.26029 9.74113 4.84998 8.00142 4.84998C7.41724 4.84998 6.87021 5.009 6.40123 5.28611Z" fill="black"/>
<path d="M7.80408 11.1439L9.71035 13.0502C9.16182 13.1809 8.58945 13.25 8.00092 13.25C4.77996 13.25 2.04291 11.1782 1.04973 8.29452C0.983332 8.10172 0.983425 7.89213 1.05 7.69939C1.31995 6.91781 1.71805 6.19599 2.21917 5.55903L4.85748 8.19734C4.9553 9.77986 6.22156 11.0461 7.80408 11.1439Z" fill="black"/>
</svg>

<svg xmlns="http://www.w3.org/2000/svg" width="16" height="16" fill="none" viewBox="0 0 16 16">
    <path fill="#000" fill-rule="evenodd" d="M3.046 1.93a.788.788 0 1 0-1.114 1.114L12.957 14.07a.788.788 0 0 0 1.114-1.113l-1.389-1.39a7.36 7.36 0 0 0 2.268-3.265.9.9 0 0 0 0-.596A7.353 7.353 0 0 0 4.664 3.55zM6.4 5.287l1.192 1.192a1.577 1.577 0 0 1 1.93 1.93L10.715 9.6a3.15 3.15 0 0 0-4.314-4.314" clip-rule="evenodd"/>
    <path fill="#000" d="M7.804 11.144 9.71 13.05a7.353 7.353 0 0 1-8.66-4.756.9.9 0 0 1 0-.595 7.3 7.3 0 0 1 1.17-2.14l2.637 2.638a3.15 3.15 0 0 0 2.947 2.947"/>
</svg>
